X: 32204
T: Phil Alexander's
R: slip jig
M: 9/8
K: Bminor
M:7/8
|:B,CD EC EC|DCB, EC EC|B,CD EF GA|DE=C B,2-B,2|
B,CD EC EC|DCB, EC EC|B,CD EF GA|DE=C B,2-B,2:|
M:4/4
|:B3d cAFE-|EAED FDB,2|B3d cAFB-|BdcA Fdc/B/A|
B3d cAFE-|EAED FDB,2|M:7/8
B,CD EC EC|DE=C B,2- B,2|
M:4/4
B3d cAFE-|EAED FDB,2|B3d cAFB-|BdcA Fdc/B/A|
B3d cAFE-|EAED FDB,2|B,CDE zE zE|M:1/8
DE=C B,4- B,4||

